packages/assets/static/images/icons/castle.svg

<svg width="24" height="24" viewBox="0 0 24 24" xmlns="http://www.w3.org/2000/svg">
<path d="M20.75 19.875H19.625V10.9688L20.5756 10.0181C20.7507 9.84416 20.8894 9.63712 20.9837 9.40907C21.078 9.18101 21.126 8.93648 21.125 8.68969V4.5C21.125 4.00272 20.9275 3.52581 20.5758 3.17417C20.2242 2.82254 19.7473 2.625 19.25 2.625H5.75C5.25272 2.625 4.77581 2.82254 4.42417 3.17417C4.07254 3.52581 3.875 4.00272 3.875 4.5V8.68969C3.87433 8.936 3.92255 9.18 4.01685 9.40755C4.11115 9.6351 4.24967 9.84168 4.42438 10.0153L5.375 10.9688V19.875H4.25C3.95163 19.875 3.66548 19.9935 3.4545 20.2045C3.24353 20.4155 3.125 20.7016 3.125 21C3.125 21.2984 3.24353 21.5845 3.4545 21.7955C3.66548 22.0065 3.95163 22.125 4.25 22.125H20.75C21.0484 22.125 21.3345 22.0065 21.5455 21.7955C21.7565 21.5845 21.875 21.2984 21.875 21C21.875 20.7016 21.7565 20.4155 21.5455 20.2045C21.3345 19.9935 21.0484 19.875 20.75 19.875ZM7.29594 9.70406L6.125 8.53125V4.875H8.75V7.125C8.75 7.42337 8.86853 7.70952 9.0795 7.9205C9.29048 8.13147 9.57663 8.25 9.875 8.25C10.1734 8.25 10.4595 8.13147 10.6705 7.9205C10.8815 7.70952 11 7.42337 11 7.125V4.875H14V7.125C14 7.42337 14.1185 7.70952 14.3295 7.9205C14.5405 8.13147 14.8266 8.25 15.125 8.25C15.4234 8.25 15.7095 8.13147 15.9205 7.9205C16.1315 7.70952 16.25 7.42337 16.25 7.125V4.875H18.875V8.53125L17.7041 9.70125C17.5993 9.80614 17.5163 9.9307 17.4598 10.0678C17.4033 10.2049 17.3745 10.3517 17.375 10.5V19.875H15.875V15.75C15.875 14.8549 15.5194 13.9965 14.8865 13.3635C14.2535 12.7306 13.3951 12.375 12.5 12.375C11.6049 12.375 10.7464 12.7306 10.1135 13.3635C9.48058 13.9965 9.125 14.8549 9.125 15.75V19.875H7.625V10.5C7.62512 10.3522 7.59612 10.2059 7.53965 10.0693C7.48319 9.93272 7.40038 9.80862 7.29594 9.70406ZM13.625 19.875H11.375V15.75C11.375 15.4516 11.4935 15.1655 11.7045 14.9545C11.9155 14.7435 12.2016 14.625 12.5 14.625C12.7984 14.625 13.0845 14.7435 13.2955 14.9545C13.5065 15.1655 13.625 15.4516 13.625 15.75V19.875Z"/>
</svg>

<svg viewBox="0 0 24 24" xmlns="http://www.w3.org/2000/svg" aria-hidden="true" fill="currentColor" height="24px" width="24px"><path d="M20.75 19.875h-1.125v-8.906l.95-.95a1.86 1.86 0 0 0 .55-1.33V4.5a1.875 1.875 0 0 0-1.875-1.875H5.75A1.875 1.875 0 0 0 3.875 4.5v4.19a1.86 1.86 0 0 0 .55 1.325l.95.954v8.906H4.25a1.125 1.125 0 1 0 0 2.25h16.5a1.125 1.125 0 1 0 0-2.25M7.296 9.705 6.125 8.53V4.875H8.75v2.25a1.125 1.125 0 0 0 2.25 0v-2.25h3v2.25a1.125 1.125 0 1 0 2.25 0v-2.25h2.625v3.656l-1.17 1.17a1.13 1.13 0 0 0-.33.799v9.375h-1.5V15.75a3.375 3.375 0 0 0-6.75 0v4.125h-1.5V10.5a1.13 1.13 0 0 0-.33-.796m6.329 10.17h-2.25V15.75a1.125 1.125 0 1 1 2.25 0z"/></svg>
